X:289
T:Tear the Calico (reel) 
B:CRE2.274 (StrÃÂÃÂÃÂÃÂ³ic an CeaileacÃÂÃÂÃÂÃÂ³)
F:file ID: cre.2/289tear_c
N:A "wren-boy" version of this tune from fiddler Tom Barrett. 
L:1/8
M:C
R:reel
Q:180
K:D
(3ABc|d2fd Adfd|edBd e2eA|d2fd Adfd|e2dB A2A2|
d2fd Adfd|edBd e2e2|a2af g2fg|e2dB A2 A2||
a3f g2fg|edBd e2e2|a2af g2fg|e2dB A2A2|
a2af g2fg|edBd e2eA|d2fd ADFD|e2dB D4|]

%%%

CRE2.275 (gan ainm) is the "Concertina Reel" (cf. 2.210 and 2.220)

%%%

